<?xml version="1.0" encoding="UTF-8"?>
<map version="1.10" tiledversion="1.11.2" orientation="orthogonal" renderorder="right-down" width="45" height="30" tilewidth="16" tileheight="16" infinite="0" nextlayerid="10" nextobjectid="1">
 <tileset firstgid="1" name="Tiles" tilewidth="16" tileheight="16" tilecount="625" columns="25">
  <image source="../../../../Desktop/Tiles.png" width="400" height="400"/>
 </tileset>
 <tileset firstgid="626" source="pc-forge-tileset.tsx"/>
 <layer id="4" name="floor" width="45" height="30">
  <data encoding="csv">
203,203,203,203,203,203,203,203,203,203,203,203,203,203,203,203,203,203,203,203,203,203,203,203,203,203,203,203,203,203,203,203,203,203,203,203,203,203,203,203,203,203,203,203,203,
203,203,203,203,203,203,203,203,203,203,203,203,203,203,203,203,203,203,203,203,203,203,203,203,203,203,203,203,203,203,203,203,203,203,203,203,203,203,203,203,203,203,203,203,203,
203,203,203,203,203,203,203,203,203,203,203,203,203,203,203,203,203,203,203,203,203,203,203,203,203,203,203,203,203,203,203,203,203,203,203,203,203,203,203,203,203,203,203,203,203,
203,203,203,203,203,203,203,203,203,203,203,203,203,203,203,203,203,203,203,203,203,203,203,203,203,203,203,203,203,203,203,203,203,203,203,203,203,203,203,203,203,203,203,203,203,
203,203,203,203,203,203,203,203,203,203,203,203,203,203,203,203,203,203,203,203,203,203,203,203,203,203,203,203,203,203,203,203,203,203,203,203,203,203,203,203,203,203,203,203,203,
203,203,203,203,203,203,203,203,203,203,203,203,203,203,203,203,203,203,203,203,203,203,203,203,203,203,203,203,203,203,203,203,203,203,203,203,203,203,203,203,203,203,203,203,203,
203,203,203,203,203,203,203,203,203,203,203,203,203,203,203,203,203,203,203,203,203,203,203,203,203,203,203,203,203,203,203,203,203,203,203,203,203,203,203,203,203,203,203,203,203,
203,203,203,203,203,203,203,203,203,203,203,203,203,203,203,203,203,203,203,203,203,203,203,203,203,203,203,203,203,203,203,203,203,203,203,203,203,203,203,203,203,203,203,203,203,
203,203,203,203,203,203,203,203,203,203,203,203,203,203,203,203,203,203,203,203,203,203,203,203,203,203,203,203,203,203,203,203,203,203,203,203,203,203,203,203,203,203,203,203,203,
203,203,203,203,203,203,203,203,203,203,203,203,203,203,203,203,203,203,203,203,203,203,203,203,203,203,203,203,203,203,203,203,203,203,203,203,203,203,203,203,203,203,203,203,203,
203,203,203,203,203,203,203,203,203,203,203,203,203,203,203,203,203,203,203,203,203,203,203,203,203,203,203,203,203,203,203,203,203,203,203,203,203,203,203,203,203,203,203,203,203,
203,203,203,203,203,203,203,203,203,203,203,203,203,203,203,203,203,203,203,203,203,203,203,203,203,203,203,203,203,203,203,203,203,203,203,203,203,203,203,203,203,203,203,203,203,
203,203,203,203,203,203,203,203,203,203,203,203,203,203,203,203,203,203,203,203,203,203,203,203,203,203,203,203,203,203,203,203,203,203,203,203,203,203,203,203,203,203,203,203,203,
203,203,203,203,203,203,203,203,203,203,203,203,203,203,203,203,203,203,203,203,203,203,203,203,203,203,203,203,203,203,203,203,203,203,203,203,203,203,203,203,203,203,203,203,203,
203,203,203,203,203,203,203,203,203,203,203,203,203,203,203,203,203,203,203,203,203,203,203,203,203,203,203,203,203,203,203,203,203,203,203,203,203,203,203,203,203,203,203,203,203,
203,203,203,203,203,203,203,203,203,203,203,203,203,203,203,203,203,203,203,203,203,203,203,203,203,203,203,203,203,203,203,203,203,203,203,203,203,203,203,203,203,203,10,203,203,
203,203,203,203,203,203,203,203,203,203,203,203,203,203,203,203,203,203,203,203,203,203,203,203,203,203,203,203,203,203,203,203,203,203,203,203,203,203,203,203,203,203,35,203,203,
203,203,203,203,203,203,203,203,203,203,203,203,203,203,203,203,203,203,203,203,203,203,203,203,203,203,203,203,203,203,203,203,203,203,203,203,203,203,203,203,203,203,203,203,203,
203,203,203,203,203,203,203,203,203,203,203,203,203,203,203,203,203,203,203,203,203,203,203,203,203,203,203,203,203,203,203,203,203,203,203,203,203,203,203,203,203,203,203,203,203,
203,203,203,203,203,203,203,203,203,203,203,203,203,203,203,203,203,203,203,203,203,203,203,203,203,203,203,203,203,203,203,203,203,203,203,203,203,203,203,203,203,203,203,203,203,
203,203,203,203,203,203,203,203,203,203,203,203,203,203,203,203,203,203,203,203,203,203,203,203,203,203,203,203,203,203,203,203,203,203,203,203,203,203,203,203,203,203,203,203,203,
203,203,203,203,203,203,203,203,203,203,203,203,203,203,203,203,203,203,203,203,203,203,203,203,203,203,203,203,203,203,203,203,203,203,203,203,203,203,203,203,203,203,203,203,203,
203,203,203,203,203,203,203,203,203,203,203,203,203,203,203,203,203,203,203,203,203,203,203,203,203,203,203,203,203,203,203,203,203,203,203,203,203,203,203,203,203,203,203,203,203,
203,203,203,203,203,203,203,203,203,203,203,203,203,203,203,203,203,203,203,203,203,203,203,203,203,203,203,203,203,203,203,203,203,203,203,203,203,203,203,203,203,203,203,203,203,
203,203,203,203,203,203,203,203,203,203,203,203,203,203,203,203,203,203,203,203,203,203,203,203,203,203,203,203,203,203,203,203,203,203,203,203,203,203,203,203,203,203,203,203,203,
203,203,203,203,203,203,203,203,203,203,203,203,203,203,203,203,203,203,203,203,203,203,203,203,203,203,203,203,203,203,203,203,203,203,203,203,203,203,203,203,203,203,203,203,203,
203,203,203,203,203,203,203,203,203,203,203,203,203,203,203,203,203,203,203,203,203,203,203,203,203,203,203,203,203,203,203,203,203,203,203,203,203,203,203,203,203,203,203,203,203,
203,203,203,203,203,203,203,203,203,203,203,203,203,203,203,203,203,203,203,203,203,203,203,203,203,203,203,203,203,203,203,203,203,203,203,203,203,203,203,203,203,203,203,203,203,
203,203,203,203,203,203,203,203,203,203,203,203,203,203,203,203,203,203,203,203,203,203,203,203,203,203,203,203,203,203,203,203,203,203,203,0,203,203,203,203,203,203,203,203,203,
203,203,203,203,203,203,203,203,203,203,203,203,203,203,203,203,203,203,203,203,203,203,203,203,203,203,203,203,203,203,203,203,203,203,203,203,203,203,203,203,203,203,203,203,203
</data>
 </layer>
 <layer id="3" name="walls" width="45" height="30">
  <data encoding="csv">
0,0,0,82,82,82,82,51,54,54,54,54,54,54,54,54,54,54,55,340,341,141,142,340,341,141,142,340,341,82,82,82,82,51,54,54,54,54,54,54,54,54,54,54,55,
0,0,0,107,107,107,107,51,54,54,54,54,54,54,54,54,54,54,55,365,366,166,167,365,366,166,167,365,366,107,107,107,107,51,54,54,54,54,54,54,54,54,54,54,55,
0,0,0,132,132,132,132,51,54,54,54,54,54,54,54,54,54,54,55,0,0,0,0,0,0,0,0,0,0,132,132,132,132,76,54,54,54,54,54,54,54,54,54,54,80,
0,0,0,0,0,0,0,76,77,54,54,54,54,54,54,54,78,79,80,0,0,0,0,0,0,0,0,5,0,0,0,0,0,101,76,84,82,84,82,82,84,82,84,80,105,
0,0,0,0,0,0,0,101,82,84,82,84,82,82,84,82,84,82,105,0,0,2,3,3,3,3,3,30,0,0,0,5,0,126,101,109,107,109,107,107,109,107,109,105,130,
0,0,0,0,0,0,0,126,107,109,107,109,107,107,109,107,109,107,130,0,0,51,53,53,53,53,53,29,3,3,30,0,0,151,126,132,132,132,132,132,132,132,132,130,155,
345,346,346,346,347,0,0,53,132,132,132,132,132,132,132,132,132,132,53,0,0,51,53,53,53,53,53,53,53,53,55,0,0,0,0,0,0,0,0,0,0,0,0,0,0,
370,371,371,371,398,347,0,0,0,0,0,0,0,0,0,0,0,0,0,0,0,51,53,53,53,53,53,53,53,53,55,0,0,0,0,0,0,0,0,0,0,0,0,0,0,
370,371,371,371,371,372,0,0,0,0,0,0,0,0,0,0,0,0,0,0,0,82,82,84,84,82,84,84,82,82,82,0,0,0,0,0,0,0,0,387,388,387,388,387,388,
370,371,371,371,371,398,346,346,346,346,346,346,346,346,346,346,346,346,346,346,347,107,107,109,109,107,109,109,107,107,107,0,0,0,0,0,0,0,0,412,413,412,413,412,413,
370,371,371,371,371,371,371,371,371,371,371,371,371,371,371,371,371,371,371,371,373,132,132,132,132,132,132,132,132,132,132,0,0,0,0,0,0,0,0,0,0,0,0,0,0,
370,371,371,371,371,371,371,371,371,371,371,371,371,371,371,371,371,371,371,371,398,346,346,346,346,346,346,346,346,346,346,347,0,0,233,234,235,0,0,0,0,0,0,0,386,
370,371,371,371,371,371,371,371,371,371,371,371,371,371,371,371,371,371,371,371,371,371,371,371,371,371,371,371,371,371,371,372,0,0,260,185,260,0,0,0,0,0,0,0,411,
370,371,371,371,348,396,396,396,396,396,396,396,396,396,396,396,396,396,350,371,371,371,371,371,371,371,371,371,371,371,348,397,0,0,260,185,260,0,0,0,0,0,233,234,235,
370,371,348,349,397,0,0,0,0,0,0,0,0,0,0,0,0,0,370,371,371,371,371,371,371,371,371,371,371,371,372,0,0,233,285,185,283,234,234,234,234,234,261,11,260,
370,371,373,0,0,0,0,0,0,0,0,0,0,0,0,0,0,0,395,396,396,396,396,396,396,396,396,396,396,396,397,0,0,260,185,185,185,185,185,185,185,185,84,36,84,
370,371,372,0,0,0,26,3,3,3,3,3,3,3,3,30,0,0,0,0,0,0,0,0,0,0,0,0,0,0,0,0,0,283,262,234,262,234,262,234,262,234,0,61,35,
370,371,372,0,0,0,51,28,28,28,28,28,28,28,28,55,0,0,0,0,0,0,0,0,0,0,0,0,0,0,0,0,0,345,346,346,346,346,346,346,346,347,12,86,12,
370,371,372,0,0,26,27,28,28,28,28,28,28,28,28,29,3,3,3,3,3,3,3,3,3,3,3,3,3,3,3,3,345,400,371,371,371,371,371,371,371,373,37,111,37,
370,371,372,0,0,51,28,28,28,28,28,28,28,28,28,28,28,28,28,28,28,28,28,28,28,28,28,28,28,28,28,28,370,371,371,371,371,371,371,371,371,398,399,399,347,
370,371,372,0,0,51,52,28,28,28,28,28,28,28,28,28,28,28,28,28,28,28,28,28,28,28,28,28,79,80,80,345,400,371,371,371,371,371,371,371,371,371,371,371,372,
370,371,372,0,0,76,77,28,28,28,28,28,28,28,28,28,53,28,28,28,28,28,28,28,28,28,28,28,55,105,105,370,371,371,371,371,371,371,371,371,371,371,371,371,372,
370,371,372,0,0,101,82,82,82,82,82,82,82,82,82,82,76,77,28,28,28,28,28,79,80,82,82,82,82,130,130,395,349,349,349,349,349,349,349,349,350,371,371,371,372,
370,371,372,0,0,126,107,107,107,107,107,107,107,107,107,107,101,102,77,28,28,28,79,80,105,107,107,107,107,0,0,0,0,0,0,0,0,0,0,0,375,371,371,371,372,
370,371,372,0,0,151,132,132,132,132,132,132,132,132,132,132,126,127,82,82,82,82,104,105,130,132,132,132,132,0,0,0,0,0,0,0,0,0,0,0,375,371,371,371,372,
370,371,372,0,0,0,0,0,0,0,0,0,0,0,0,0,0,152,107,107,107,107,129,130,0,0,0,0,0,0,0,345,346,346,346,346,346,346,346,346,400,371,371,371,372,
370,371,372,0,0,0,0,0,0,0,0,0,0,0,0,0,0,28,132,132,132,132,154,0,0,0,0,0,0,0,0,375,371,371,371,371,371,371,371,371,371,371,371,371,372,
370,371,398,346,346,346,346,346,346,346,346,346,346,346,347,0,0,0,0,0,0,0,0,0,0,0,345,346,346,346,346,400,371,371,371,371,371,371,371,371,371,371,371,371,372,
370,371,371,371,371,371,371,371,371,371,371,371,371,371,372,0,0,0,0,0,0,0,0,0,0,345,400,371,371,371,371,371,371,371,371,371,371,371,371,371,371,371,371,371,372,
445,371,371,371,371,371,371,371,371,371,371,371,371,371,398,346,346,346,346,346,346,346,346,346,346,400,371,371,371,371,371,371,371,371,371,371,371,371,371,371,371,371,371,371,372
</data>
 </layer>
 <layer id="6" name="statues" width="45" height="30">
  <data encoding="csv">
0,0,0,0,0,0,0,0,0,12,10,12,10,10,12,10,12,0,0,0,0,0,0,0,0,0,0,0,0,0,0,0,0,0,0,12,0,12,0,0,12,0,12,0,0,
0,0,0,0,0,0,0,0,0,12,35,12,35,35,12,35,12,0,0,0,0,0,0,0,0,0,0,0,0,0,0,0,0,0,0,37,0,37,0,0,37,0,37,0,0,
0,0,0,0,0,0,0,0,0,37,60,37,60,60,37,60,37,0,0,482,0,0,0,0,0,0,0,0,0,0,0,0,0,0,0,84,0,84,0,0,84,0,84,0,0,
0,0,0,0,0,156,183,0,0,84,85,84,85,85,84,85,84,0,0,0,0,0,10,0,0,10,0,0,10,0,0,0,0,0,0,0,0,0,0,0,0,0,0,0,0,
0,0,0,0,0,0,156,0,0,0,110,0,110,110,0,110,0,0,0,0,0,0,35,10,10,35,10,10,35,0,0,0,0,433,0,0,0,0,0,0,0,0,0,0,0,
0,0,0,0,0,0,0,433,0,0,0,0,0,0,0,0,0,0,433,0,0,0,60,35,35,60,35,35,60,0,0,0,0,458,0,0,0,0,0,0,0,0,0,0,0,
0,0,0,0,0,0,0,458,0,0,0,0,0,0,0,0,0,0,458,0,0,0,85,12,12,85,12,12,85,0,0,0,0,0,0,0,0,0,0,0,0,0,0,340,341,
0,0,0,0,0,0,0,0,0,0,0,482,0,0,0,0,0,0,0,0,0,0,110,37,37,110,37,37,110,0,0,0,0,0,0,0,0,0,0,0,0,0,0,365,366,
0,0,0,0,0,0,0,0,0,0,0,0,0,0,0,0,0,0,0,0,0,0,0,0,0,0,0,0,0,0,0,0,0,0,0,0,0,0,0,0,0,0,0,0,0,
0,0,0,0,0,0,0,0,0,0,0,0,0,0,0,0,0,0,0,0,0,0,0,0,0,0,0,0,0,0,0,0,0,0,0,0,0,0,0,0,0,0,0,0,0,
0,0,0,0,0,0,238,239,0,238,239,0,0,0,0,371,371,0,0,0,0,0,0,0,0,0,0,0,0,0,0,0,0,0,0,0,0,0,0,0,0,0,0,0,386,
0,0,0,0,0,0,263,264,0,263,264,0,265,266,0,371,371,0,0,0,0,0,0,0,0,0,0,0,0,0,0,0,0,0,10,11,10,0,0,0,0,0,0,0,411,
0,0,0,0,0,0,288,289,0,288,289,0,290,291,0,371,371,0,0,238,239,0,0,0,0,0,0,0,238,239,0,0,0,0,35,36,35,0,0,0,0,385,0,0,0,
0,0,0,0,0,389,313,314,389,313,314,389,315,316,389,396,396,385,0,263,264,0,0,0,0,265,266,0,263,264,0,0,0,0,37,61,37,0,0,0,0,410,0,0,0,
0,0,0,0,0,0,0,0,0,0,0,0,0,0,0,0,0,410,0,288,289,0,340,341,0,290,291,0,288,289,0,0,0,0,0,86,0,0,0,0,0,0,0,0,0,
0,0,0,0,0,0,0,0,0,0,0,0,0,0,0,0,0,0,389,313,314,389,365,366,389,315,316,389,313,314,389,0,0,0,0,111,0,0,0,0,0,0,0,0,0,
0,0,0,0,0,0,0,0,0,0,0,0,0,0,0,0,0,0,0,0,0,0,0,0,0,0,0,0,0,0,0,0,0,0,0,0,0,0,0,0,0,0,0,0,0,
0,0,0,0,0,0,0,0,0,0,0,0,0,0,0,0,0,0,0,134,0,0,0,134,0,0,0,0,0,0,0,0,0,0,0,0,0,0,0,0,0,0,0,0,0,
0,0,0,0,0,0,0,0,0,0,0,0,0,0,0,0,0,0,0,0,0,0,0,0,0,0,0,0,0,0,0,0,0,0,0,0,0,0,0,0,0,0,0,0,0,
0,0,0,0,0,0,0,0,0,0,0,0,0,0,0,0,0,0,0,0,0,0,0,0,0,0,0,0,0,0,0,0,0,0,0,0,0,0,0,0,0,0,0,0,0,
0,0,0,0,0,0,0,0,0,0,0,0,0,0,0,0,0,0,0,0,0,0,0,0,0,0,0,0,0,0,0,0,0,0,0,0,0,0,0,0,0,0,0,0,0,
0,0,0,0,0,0,0,0,0,0,0,0,0,0,0,0,0,0,0,0,0,0,0,0,0,0,0,0,0,0,0,0,0,0,0,0,0,0,0,0,0,0,0,0,0,
0,0,0,0,0,0,0,0,0,0,0,0,0,0,0,0,0,0,0,0,0,0,0,0,0,0,0,0,0,0,0,0,0,0,0,0,0,0,0,0,0,0,0,0,0,
0,0,0,0,0,0,0,0,0,0,0,0,0,0,0,0,0,0,0,0,0,0,0,0,0,0,0,0,0,485,0,0,0,0,0,0,0,0,91,0,0,0,0,0,0,
0,0,0,0,0,0,0,0,0,0,0,0,0,0,0,0,0,0,0,0,0,0,0,0,0,0,0,0,0,0,0,0,0,0,0,0,0,0,116,0,0,0,0,0,0,
0,0,0,385,0,0,0,0,0,0,0,0,0,0,0,0,0,433,0,0,0,0,0,0,0,0,0,0,0,0,0,0,0,0,0,0,0,0,0,0,0,0,0,0,0,
0,0,0,410,0,0,0,0,0,0,0,0,0,0,0,0,0,458,0,0,0,0,0,0,0,435,0,0,0,0,485,0,0,0,0,0,0,0,0,0,0,0,0,0,0,
0,0,0,0,0,0,0,0,0,0,0,0,0,0,0,435,435,0,0,0,0,0,0,0,0,460,0,0,0,0,0,0,0,0,0,0,0,0,0,0,0,0,0,0,0,
0,0,0,0,0,0,0,0,0,0,0,0,0,0,0,460,460,0,0,0,0,0,0,0,0,0,0,0,0,0,0,0,0,0,0,0,0,0,0,0,0,0,0,0,0,
0,0,0,0,0,0,0,0,0,0,0,0,0,0,0,0,0,0,0,0,0,0,0,0,0,0,0,0,0,0,0,0,0,0,0,0,0,0,0,0,0,0,0,0,0
</data>
 </layer>
 <layer id="7" name="details" width="45" height="30">
  <data encoding="csv">
18,19,20,0,0,0,0,0,0,0,0,0,0,0,0,0,0,0,0,0,0,0,0,0,0,0,0,0,0,0,0,0,0,0,0,0,0,0,0,0,0,0,0,0,0,
43,44,45,0,0,0,0,0,0,0,0,0,0,0,0,0,0,0,0,0,0,0,0,0,0,0,0,0,0,0,0,0,0,0,0,0,0,0,0,0,0,0,0,0,0,
68,69,70,0,0,0,0,0,0,0,0,0,0,0,0,0,0,0,0,0,0,0,0,0,0,0,0,0,0,0,0,0,0,0,0,0,0,0,238,239,0,0,0,0,0,
93,94,95,0,0,0,0,0,0,0,0,0,0,0,0,0,0,0,0,0,0,0,0,0,0,0,0,0,0,0,0,0,0,0,0,0,0,0,263,264,0,0,0,0,0,
118,119,120,0,0,0,0,0,0,0,0,0,0,0,0,0,0,0,0,0,0,0,0,0,0,0,0,0,0,0,384,0,0,0,0,0,0,0,288,289,0,0,0,0,0,
0,0,0,0,0,0,0,0,0,0,0,0,0,0,0,0,0,0,0,0,0,0,0,0,0,0,0,0,0,384,409,0,0,0,0,0,0,0,313,314,0,0,0,0,0,
0,0,0,0,0,0,0,0,0,0,0,0,0,0,0,0,0,0,0,0,0,0,0,0,0,0,0,0,0,409,384,0,0,0,0,0,0,0,0,0,0,0,0,0,0,
0,371,371,0,0,0,0,0,0,0,0,0,0,0,0,0,0,0,0,0,0,0,0,0,0,0,0,0,0,0,409,0,0,0,0,0,0,0,0,0,0,0,0,0,0,
0,0,371,371,371,0,0,0,0,0,0,0,0,0,0,0,0,0,0,0,0,0,0,0,0,0,0,0,0,0,0,0,0,0,0,0,0,0,0,0,0,0,0,0,0,
0,0,0,0,0,0,0,0,0,0,0,0,0,0,0,0,0,0,0,0,0,0,0,0,0,0,0,0,0,0,0,0,0,0,0,0,0,0,0,0,0,0,0,0,386,
0,371,371,0,0,0,0,0,371,0,0,371,371,0,371,0,0,0,371,371,0,0,0,0,0,0,0,0,0,0,0,0,0,0,0,0,0,0,0,0,0,0,0,0,411,
0,371,0,0,0,0,0,0,0,0,0,371,0,0,371,0,0,371,0,371,0,0,0,0,0,0,0,0,0,0,0,0,0,0,0,0,0,0,0,0,0,0,0,0,0,
0,371,371,371,371,0,0,0,0,0,0,0,0,0,0,0,0,0,0,0,0,0,371,0,371,0,371,0,183,0,371,0,0,0,0,0,0,0,0,0,0,0,0,0,0,
0,371,371,0,384,0,0,0,0,0,0,0,0,0,0,0,0,0,0,0,0,371,371,371,0,183,0,371,0,0,0,0,0,0,0,0,0,0,0,0,0,0,0,0,0,
0,0,0,0,409,0,0,0,0,0,0,0,0,0,0,0,0,0,0,0,0,0,0,0,0,0,0,0,0,0,0,0,0,0,0,0,0,0,0,0,0,0,0,0,0,
0,371,0,0,0,0,0,0,0,0,0,0,0,0,0,0,0,0,0,0,0,0,0,0,0,0,0,0,0,0,0,0,0,0,0,0,0,0,0,0,0,0,0,0,0,
0,371,0,0,0,0,0,0,0,0,0,0,0,0,0,0,0,0,0,0,0,0,0,0,0,0,0,0,0,0,0,0,0,0,0,0,0,0,0,0,0,0,0,0,0,
370,371,0,0,0,0,0,0,0,0,0,0,0,0,0,0,0,0,0,0,0,0,0,0,0,0,0,0,0,383,0,383,0,0,0,0,0,0,0,0,0,0,0,0,0,
0,371,0,0,0,0,0,0,0,0,0,0,0,0,0,0,0,0,0,0,0,0,0,0,0,0,0,0,0,0,0,0,0,0,0,238,239,371,0,0,0,0,0,0,0,
0,371,0,0,0,0,0,0,0,0,0,0,0,0,0,0,0,0,0,0,0,0,0,0,0,0,0,0,0,0,0,0,0,0,0,263,264,18,19,20,0,398,238,239,0,
0,371,0,0,0,0,0,0,0,0,0,0,0,0,0,0,0,0,0,0,0,0,0,0,0,0,0,0,0,0,0,0,0,0,371,288,289,43,44,45,0,371,263,264,0,
0,371,0,0,0,0,0,0,0,0,0,0,0,0,0,0,0,0,0,0,0,0,0,0,0,0,0,0,0,0,0,0,0,0,371,313,314,68,69,70,0,0,288,289,0,
0,371,0,0,0,0,0,0,0,0,0,0,0,0,0,0,0,0,0,0,0,0,0,0,0,0,0,0,0,0,0,0,0,0,0,0,0,93,94,95,0,371,313,314,372,
0,371,0,0,0,0,0,0,0,0,0,0,0,0,0,0,0,0,0,0,0,0,0,0,0,0,0,0,0,0,0,0,0,0,0,0,0,118,119,120,0,371,0,0,372,
370,371,0,0,0,0,0,0,0,0,0,0,0,0,0,0,0,0,0,0,0,0,0,0,0,0,0,0,0,0,0,0,0,0,0,0,0,0,0,0,0,0,238,239,0,
0,371,0,0,0,0,0,0,0,0,0,0,0,0,0,0,0,0,0,0,0,0,0,0,0,0,0,0,0,0,0,0,0,0,0,238,239,0,0,0,0,0,263,264,0,
0,371,0,0,0,0,0,0,0,0,0,0,0,0,0,0,0,0,0,0,0,0,0,0,0,0,0,0,0,0,0,0,0,0,0,263,264,0,0,0,0,371,288,289,0,
0,371,0,0,0,0,0,0,0,0,0,0,0,0,0,0,0,0,0,0,0,0,0,0,0,0,0,0,0,0,0,0,0,0,371,288,289,0,0,0,0,371,313,314,0,
0,371,371,371,371,371,371,371,371,371,371,371,0,0,0,0,0,0,0,0,0,0,0,0,0,0,0,0,0,0,0,0,0,0,371,313,314,371,0,0,0,0,0,371,0,
370,0,0,0,371,371,371,371,371,371,371,0,0,0,0,0,0,0,0,0,0,0,0,0,0,0,0,0,0,0,0,0,0,0,0,0,0,371,0,0,0,0,0,371,0
</data>
 </layer>
 <layer id="1" name="road" width="45" height="30">
  <data encoding="csv">
15,16,17,0,0,0,0,0,0,0,0,0,0,0,0,0,0,0,0,0,0,0,0,0,0,0,0,0,0,0,0,0,0,0,0,0,0,0,0,0,0,0,0,0,0,
40,41,42,0,0,0,0,0,0,0,0,0,0,0,0,0,0,0,0,0,0,0,0,0,0,0,0,0,0,0,0,0,0,0,0,0,0,0,0,0,0,0,0,0,0,
65,66,67,0,0,0,0,0,0,0,0,0,0,0,0,0,0,0,0,203,203,203,203,203,203,203,203,203,203,0,0,0,0,0,0,0,0,0,0,0,0,0,0,0,0,
90,91,92,203,0,0,0,0,0,0,0,0,0,0,0,0,0,0,0,203,203,203,203,203,203,203,203,203,203,203,203,203,203,0,0,0,0,0,0,0,0,0,0,0,0,
115,116,117,203,203,0,0,0,0,0,0,0,0,0,0,0,0,0,0,203,203,0,0,0,0,0,0,0,0,0,0,0,203,0,0,0,0,0,0,0,0,0,0,0,0,
203,203,203,203,203,203,203,0,0,0,0,0,0,0,0,0,0,0,0,203,203,0,0,0,0,0,0,0,0,0,0,203,203,0,0,0,0,0,0,0,0,0,0,0,0,
0,0,0,0,0,203,203,0,0,0,0,0,0,0,0,0,0,0,0,203,203,0,0,0,0,0,0,0,0,0,0,203,203,203,203,203,203,203,203,203,203,0,0,0,0,
0,0,0,0,0,0,203,203,203,203,203,203,203,203,203,203,203,203,203,203,203,0,0,0,0,0,0,0,0,0,0,203,203,0,0,0,0,0,0,0,0,0,0,0,0,
0,0,0,0,0,0,203,203,203,203,203,203,203,203,203,203,203,203,203,203,203,0,0,0,0,0,0,0,0,0,0,203,203,0,0,0,0,0,0,0,0,0,0,0,0,
0,159,160,161,0,0,0,0,0,0,0,0,0,0,0,159,161,0,0,0,0,0,0,0,0,0,0,0,0,0,0,203,203,0,0,0,0,0,0,0,0,0,0,0,0,
0,184,185,186,0,0,0,0,0,0,0,0,0,0,0,184,186,0,0,0,0,0,0,0,0,0,0,0,0,0,0,203,203,203,203,203,203,203,0,0,0,0,0,0,0,
0,184,185,211,0,0,0,0,0,0,0,0,0,0,0,184,186,0,0,0,0,0,0,0,0,0,0,0,0,0,0,0,203,203,0,0,0,203,0,0,0,0,0,0,0,
0,184,186,0,0,0,0,0,0,0,0,0,0,0,0,184,186,0,0,0,0,0,0,0,0,0,0,0,0,0,0,0,203,203,0,0,0,203,0,0,0,203,0,0,0,
0,184,186,0,0,0,0,0,0,0,0,0,0,0,0,209,211,0,0,0,0,0,0,0,0,0,0,0,0,0,0,0,203,203,0,0,0,203,203,203,203,203,0,0,0,
0,184,186,0,0,0,0,0,0,0,0,0,0,0,0,0,0,0,0,0,0,0,0,0,0,0,0,0,0,0,0,203,203,0,0,0,0,0,0,0,0,0,0,0,0,
0,184,185,161,0,0,0,0,0,0,0,0,0,0,0,0,203,0,0,0,0,0,0,0,0,0,0,0,0,0,0,203,203,0,0,0,0,0,0,0,0,0,0,0,0,
0,209,210,211,0,0,0,0,0,0,0,0,0,0,0,0,203,0,0,0,0,0,0,0,0,0,0,0,0,0,0,0,203,0,0,0,0,0,0,0,0,0,0,0,0,
0,0,0,0,0,0,0,0,0,0,0,0,0,0,0,0,203,203,203,203,203,203,203,203,203,203,203,203,203,203,203,203,203,0,0,0,0,0,0,0,0,0,0,0,0,
0,0,0,0,0,0,0,0,0,0,0,0,0,0,0,0,0,0,0,0,0,0,0,0,0,0,0,0,0,0,0,0,0,0,0,0,0,0,0,0,0,0,0,0,0,
0,0,0,0,0,0,0,0,0,0,0,0,0,0,0,0,0,0,0,0,0,0,0,0,0,0,0,0,0,0,0,0,0,0,0,0,0,15,16,17,0,0,0,0,0,
0,0,0,0,0,0,0,0,0,0,0,0,0,0,0,0,0,0,0,0,0,0,0,0,0,0,0,0,0,0,0,0,0,0,0,0,0,40,41,42,0,0,0,0,0,
0,0,0,0,0,0,0,0,0,0,0,0,0,0,0,0,0,0,0,0,0,0,0,0,0,0,0,0,0,0,0,0,0,0,0,0,0,65,66,67,0,0,0,0,0,
0,0,0,0,0,0,0,0,0,0,0,0,0,0,0,0,0,0,0,0,0,0,0,0,0,0,0,0,0,0,0,0,0,0,0,0,0,90,91,92,0,0,0,0,0,
0,0,0,0,0,0,0,0,0,0,0,0,0,0,0,0,0,0,0,0,0,0,0,0,0,0,0,0,0,0,0,0,0,0,0,0,0,115,116,117,0,0,0,0,0,
0,0,0,0,0,0,0,0,0,0,0,0,0,0,0,0,0,0,0,0,0,0,0,0,0,0,0,0,0,0,0,0,0,0,0,0,0,0,0,0,0,0,0,0,0,
0,0,0,0,0,0,0,0,0,0,0,0,0,0,0,0,0,0,0,0,0,0,0,0,0,0,0,0,0,0,0,0,0,0,0,0,0,0,0,0,0,0,0,0,0,
0,0,0,0,0,0,0,0,0,0,0,0,0,0,0,0,0,0,0,0,0,0,0,0,0,0,0,0,0,0,0,0,0,0,0,0,0,0,0,0,0,0,0,0,0,
0,0,0,0,0,0,0,137,138,0,0,0,0,0,0,0,0,0,0,0,0,0,0,0,0,0,0,0,0,0,0,0,0,0,0,0,0,0,0,0,0,0,0,0,0,
0,0,0,0,0,0,159,185,185,161,0,0,0,0,0,0,0,0,0,0,0,0,0,0,0,0,0,0,0,0,0,0,0,0,0,0,0,0,0,0,0,0,0,0,0,
0,0,0,0,0,0,209,210,210,211,0,0,0,0,0,0,0,0,0,0,0,0,0,0,0,0,0,0,0,0,0,0,0,0,0,0,0,0,0,0,0,0,0,0,0
</data>
 </layer>
 <layer id="9" name="loot" width="45" height="30">
  <data encoding="csv">
0,0,0,0,0,0,0,0,0,0,0,0,0,0,0,0,0,0,0,0,0,0,0,0,0,0,0,0,0,0,0,0,0,0,0,0,0,0,0,0,0,0,0,0,0,
0,0,0,0,0,0,0,0,0,0,0,0,0,0,0,0,0,0,0,0,0,0,0,0,0,0,0,0,0,0,0,0,0,0,0,0,0,0,0,0,0,0,0,0,0,
0,0,0,0,0,0,0,0,0,0,0,0,0,0,0,0,0,0,0,0,0,0,0,0,0,0,0,0,0,0,0,0,0,0,0,0,0,0,0,0,0,0,0,0,0,
0,0,0,0,0,0,0,0,0,0,0,0,0,0,0,0,0,0,0,0,0,0,0,0,0,0,0,0,0,0,0,0,0,0,0,0,0,0,0,0,0,0,0,0,0,
0,0,0,0,0,0,0,0,0,0,0,0,0,0,0,0,0,0,0,0,0,0,0,0,0,0,0,0,0,0,0,0,0,0,0,0,0,0,0,0,0,0,0,0,0,
0,0,0,0,0,0,0,0,0,0,0,0,0,0,0,0,0,0,0,0,0,0,0,0,0,0,0,0,0,0,0,0,0,0,0,0,0,0,0,0,0,0,0,0,0,
0,0,0,0,0,0,0,0,0,0,0,0,0,0,0,0,0,0,0,0,0,0,0,0,0,0,0,0,0,0,0,0,0,0,0,0,0,0,0,0,0,0,0,0,0,
0,0,0,0,0,0,0,0,0,0,0,0,0,0,0,0,0,0,0,0,0,0,0,0,0,0,0,0,0,0,0,0,0,0,0,0,0,0,0,0,0,0,0,0,0,
0,0,141,142,0,0,0,0,0,0,0,0,0,0,0,0,0,0,0,0,0,0,0,0,0,0,0,0,0,0,0,0,0,0,0,0,0,0,0,0,0,0,0,0,0,
0,0,166,167,0,0,0,0,0,0,0,0,0,0,0,0,0,0,0,0,0,0,0,0,0,0,0,0,0,0,0,0,0,0,0,0,0,0,0,0,0,0,0,0,0,
0,0,0,0,0,0,0,0,0,0,0,0,0,0,0,0,0,0,0,0,0,0,0,0,0,0,0,0,0,0,0,0,0,0,0,0,0,0,0,0,0,0,0,0,0,
0,0,0,0,0,0,0,0,0,0,0,0,0,0,0,0,0,0,0,0,0,0,0,0,0,0,0,0,0,0,0,0,0,0,0,0,0,0,0,0,141,142,0,0,0,
0,0,0,0,0,0,0,0,0,0,0,0,0,0,0,0,0,0,0,0,0,0,0,0,0,0,0,0,0,0,0,0,0,0,0,0,0,0,0,0,166,167,0,0,0,
0,0,0,0,0,0,0,0,0,0,0,0,0,0,0,0,0,0,0,0,0,0,0,0,0,0,0,0,0,0,0,0,0,0,0,0,0,0,0,0,0,0,0,0,0,
0,0,0,0,0,0,0,0,0,0,0,0,0,0,0,0,0,0,0,0,0,0,0,0,0,0,0,0,0,0,0,0,0,0,0,0,0,0,0,0,0,0,0,0,0,
0,0,0,0,0,0,0,0,0,0,0,0,0,0,0,0,0,0,0,0,0,0,0,0,0,0,0,0,0,0,0,0,0,0,0,0,0,0,0,0,0,0,0,0,0,
0,0,0,0,0,0,0,0,0,0,0,0,0,0,0,0,0,0,0,0,0,0,0,0,0,0,0,0,0,0,0,0,0,0,0,0,0,0,0,0,0,0,0,0,0,
0,0,0,0,0,0,0,0,0,0,0,0,0,0,0,0,0,0,0,0,0,0,0,0,0,0,0,0,0,0,0,0,0,0,0,0,0,0,0,0,0,0,0,0,0,
0,0,0,0,0,0,0,0,0,0,0,0,0,0,0,0,0,0,0,0,0,0,0,0,0,0,0,0,0,0,0,0,0,0,0,0,0,0,0,0,0,0,0,0,0,
0,0,0,0,0,0,0,0,0,0,0,0,0,0,0,0,0,0,0,0,0,0,0,0,0,0,0,0,0,0,0,0,0,0,0,0,0,0,0,0,0,0,0,0,0,
0,0,0,0,0,0,0,0,0,0,0,0,0,0,0,0,0,0,0,0,0,0,0,0,0,0,0,0,0,0,0,0,0,0,0,0,0,0,0,0,0,0,0,0,0,
0,0,0,0,0,0,0,0,0,0,0,0,0,0,0,0,0,0,0,0,0,0,0,0,0,0,0,0,0,0,0,0,0,0,0,0,0,0,0,0,0,0,0,0,0,
0,0,0,0,0,0,0,0,0,0,0,0,0,0,0,0,0,0,0,0,0,0,0,0,0,0,0,0,0,0,0,0,0,0,0,0,0,0,0,0,0,0,0,0,0,
0,0,0,0,0,0,0,0,0,0,0,0,0,0,0,0,0,0,0,0,0,0,0,0,0,0,0,0,0,0,0,0,0,0,0,0,0,0,0,0,0,0,0,0,0,
0,0,0,0,0,0,0,0,0,0,0,0,0,0,0,0,0,0,0,0,0,0,0,0,0,0,0,0,0,0,0,0,0,0,0,0,0,0,0,0,0,0,0,0,0,
0,0,0,0,0,0,0,0,0,0,0,0,0,0,0,0,0,0,0,0,0,0,0,0,0,0,0,0,0,0,0,0,0,0,0,0,0,0,0,0,0,0,0,0,0,
0,0,0,0,0,0,0,0,0,0,0,0,0,0,0,0,0,0,0,0,0,0,0,0,0,0,0,0,0,0,0,0,0,0,0,0,0,0,0,0,0,0,0,0,0,
0,0,0,0,0,0,0,0,0,0,0,0,0,0,0,0,0,0,0,0,0,0,0,0,0,0,0,0,0,0,0,0,0,0,0,0,0,0,0,0,0,0,0,0,0,
0,0,0,0,0,0,0,385,385,0,0,0,0,0,0,0,0,0,0,0,0,0,0,0,0,0,0,0,0,0,0,0,0,0,0,0,0,0,0,0,0,0,0,0,0,
0,0,0,0,0,0,0,410,410,0,0,0,0,0,0,0,0,0,0,0,0,0,0,0,0,0,0,0,0,0,0,0,0,0,0,0,0,0,0,0,0,0,0,0,0
</data>
 </layer>
</map>
